fs/arrow_forward_down_person_24_regular.svg

<svg viewBox="0 0 24 24" fill="none" xmlns="http://www.w3.org/2000/svg" height="1em" width="1em">
  <path d="M19.69 9.5004L16.727 6.53745C16.4341 6.24455 16.4341 5.76968 16.727 5.47679C16.9933 5.21052 17.41 5.18632 17.7036 5.40417L17.7877 5.47679L22.0303 9.71943C22.2966 9.9857 22.3208 10.4024 22.1029 10.696L22.0303 10.7801L17.7877 15.0227C17.4948 15.3156 17.0199 15.3156 16.727 15.0227C16.4608 14.7565 16.4366 14.3398 16.6544 14.0462L16.727 13.9621L19.69 11.0004L14 10.9998C9.8021 10.9998 6.38375 7.66213 6.25383 3.49577L6.25 3.24976C6.25 2.83554 6.58579 2.49976 7 2.49976C7.41421 2.49976 7.75 2.83554 7.75 3.24976C7.75 6.62483 10.4252 9.37507 13.7709 9.49564L14 9.49976L19.69 9.5004ZM9 13.5C9 14.8807 7.88071 16 6.5 16C5.11929 16 4 14.8807 4 13.5C4 12.1193 5.11929 11 6.5 11C7.88071 11 9 12.1193 9 13.5ZM11 18.875C11 20.4315 9.71429 22 6.5 22C3.28571 22 2 20.4374 2 18.875V18.772C2 17.7929 2.79368 17 3.77273 17H9.22727C10.2063 17 11 17.793 11 18.772V18.875Z" fill="#212121"/>
</svg>

<svg viewBox="0 0 24 24" fill="none" xmlns="http://www.w3.org/2000/svg" height="1em" width="1em">
  <path d="m19.69 9.5-2.963-2.963a.75.75 0 0 1 .977-1.133l.084.073 4.242 4.242a.75.75 0 0 1 .073.977l-.073.084-4.242 4.243a.75.75 0 0 1-1.134-.977l.073-.084L19.69 11H14a7.75 7.75 0 0 1-7.746-7.504L6.25 3.25a.75.75 0 1 1 1.5 0 6.25 6.25 0 0 0 6.02 6.246L14 9.5h5.69ZM9 13.5a2.5 2.5 0 1 1-5 0 2.5 2.5 0 0 1 5 0Zm2 5.375C11 20.431 9.714 22 6.5 22S2 20.437 2 18.875v-.103C2 17.792 2.794 17 3.773 17h5.454c.98 0 1.773.793 1.773 1.772v.103Z" fill="#212121"/>
</svg>
